X: 26843
T: Mimi And The New Generation
R: polka
M: 2/4
K: Edorian
|:E/F/G/A/ Be|df B2|g>f ef|B2 B2|
b>a fe|fa Be|dB AF|1 BB BB:|2 E2 E2||
|:b>a fe|f/g/a b2|b>a fe|f2 f2|
b>a fe|f/g/a be|dB AF|1 E2 E2:|2 E2 B2||

